X:1
T:Field, 10.10.10.10
T:Field, 10.10.10.10
T:Calvin Weiss Laufer, 1919
T:Public Domain Courtesy of the Cyber Hymnal™
C:Calvin Weiss Laufer, 1919
Z:Public Domain
Z:Courtesy of the Cyber Hymnal™
%%score ( 1 2 ) ( 3 4 )
L:1/8
M:4/4
K:G
V:1 treble 
V:2 treble 
V:3 bass 
V:4 bass 
V:1
 D4 [DG]2 [FA]2 | [GB]4 [Gd]4 | [Gc]2 [GB]2 [FA]2 [FB]2 | [DG]8 | [DA]4 [DG]2 [FA]2 | [GB]4 [Gd]4 | %6
 [Ge]2 [Gd]2 [^CB]2 [CG]2 | [DA]8 | D4 [DG]2 [FA]2 | [GB]4 [=Fd]4 | [Ec]2 [Ec]2 [EG]2 [_EA]2 | %11
 [DB]8 | [Gd]4 [Ac]2 [GB]2 | [EA]2 [EB]2 c2 E2 | [DG]4 [CF]4 | [B,G]8 |] %16
V:2
 D4 x4 | x8 | x8 | x8 | x8 | x8 | x8 | x8 | D4 x4 | x8 | x8 | x8 | x8 | x4 c2 E2 | x8 | x8 |] %16
V:3
 [G,B,]4 [E,B,]2 [D,C]2 | [G,,D]4 [B,,D]4 | [C,E]2 [G,D]2 [D,C]2 [D,D]2 | [G,,G,B,]8 | %4
 [D,C]4 [D,B,]2 [D,D]2 | [G,D]4 [G,B,]4 | [C,C]2 [G,B,]2 [E,G,]2 [E,A,]2 | [D,F,]8 | %8
 [G,B,]4 [E,B,]2 [D,C]2 | [G,,D]4 [B,,G,]4 | [C,G,]2 [C,G,]2 [C,C]2 [C,C]2 | G,8 | %12
 [G,B,]4 [F,D]2 [G,D]2 | [C,C]2 [B,,^G,]2 [A,,A,]2 [C,A,]2 | [D,B,]4 [D,A,]4 | [G,,G,]8 |] %16
V:4
 x8 | x8 | x8 | x8 | x8 | x8 | x8 | x8 | x8 | x8 | x8 | G,8 | x8 | x8 | x8 | x8 |] %16

